Adwaita++/actions/22/document-edit.svg

<svg fill="none" height="22" viewBox="0 0 22 22" width="22" xmlns="http://www.w3.org/2000/svg">
  <path clip-rule="evenodd" d="m14.0826 4.90686c.1537-.15367.3541-.23047.5547-.23047.2005 0 .401.07682.5547.23047l1.9433 1.94141c.3073.3073.3073.80207 0 1.10937l-1.7695 1.76953-3.0527-3.05273zm-2.5546 2.5351-5.84938 5.85074-1.0065 4.094 4.02676-1.0719 5.82892-5.873z" fill="#444" fill-rule="evenodd"/>
</svg>

<svg xmlns="http://www.w3.org/2000/svg" fill="none" width="22" height="22" viewBox="0 0 22 22">
 <path fill="#444" fill-rule="evenodd" d="M14.0826 4.90686C14.2363 4.75319 14.4367 4.67639 14.6373 4.67639C14.8378 4.67639 15.0383 4.75321 15.192 4.90686L17.1353 6.84827C17.4426 7.15557 17.4426 7.65034 17.1353 7.95764L15.3658 9.72717L12.3131 6.67444L14.0826 4.90686ZM11.528 7.44196L5.67862 13.2927L4.67212 17.3867L8.69888 16.3148L14.5278 10.4418L11.528 7.44196Z" clip-rule="evenodd"/>
</svg>
